X:1
T:’Twill Not Be Long
T:William Howard Doane
T:’Twill Not Be Long
T:Public Domain
T:Public Domain
C:William Howard Doane
Z:Public Domain
%%score ( 1 2 ) ( 3 4 )
L:1/8
M:4/4
K:Eb
V:1 treble 
V:2 treble 
V:3 bass 
V:4 bass 
V:1
 (EF) | [EG]2 [EG]2 [EG]2 [FA]2 | [GB]3 [FA] [EG]2 ([DF][EG]) | [FA]2 [FA]2 [FA]2 [Ac]2 | %4
w: 1.~’Twill *|long, our jour- ney|here; Each brok- en *|sigh and fall- ing|
w: 2.~’Twill *|long; the yearn- ing|heart May feel its *|ev- ery hope de-|
w: 3.~Though *|mark the clos- ing|eye, Of those we *|loved in days gone|
w: 4.~These *|wilds, with thorns o’er-|spread, Through which our *|way so oft is|
 [Ac]3 [GB] [GB]2 ([EG][FA]) | [GB]2 [GB]2 [GB]2 [Be]2 | [Bd]3 [Ac] [Ac]2 [Ae]2 | %7
w: tear Will soon be *|gone, and all will|be A cloud- less|
w: part, And grief be *|min- gled with its|song; We’ll meet a-|
w: by, Yet sweet in *|death their lat- est|song— We’ll meet a-|
w: led— This march of *|time, with truth so|strong, Will end in|
 [Ge]2 [EG]2 (cB)(AF) | E2 (GF) E2 ||"^Refrain" ([EG][FA]) | [GB]6 ([EG][FA]) | [GB]6 [GB]2 | %12
w: sky, a wave- * less *|||||
w: gain; ’twill not * be *|on, dark * stream,|thy *|foam; The *|pil- grim|
w: gain; ’twill not * be *|||||
w: bliss; ’twill not * be *|||||
 ([Ge]2 [Ad]2) [Be]2 [Ac]2 | (F4 E2) [DA]2 | ([EG]2 [FB]2) [Ge]2 [EG]2 | (F2 A2) [Ec]2 [FA]2 | %16
w: ||||
w: is * long- ing|for * home,|home. * * *||
w: ||||
w: ||||
 [EG]4 (G3 F) | E6 |] %18
w: ||
w: ||
w: ||
w: ||
V:2
 EF | x8 | x8 | x8 | x8 | x8 | x8 | x4 D2 D2 | E2 D2 E2 || x2 | x8 | x8 | x8 | B6 x2 | x8 | E4 x4 | %16
w: not be|||||||sea. *|||||||||
w: not be|||||||long. Roll|We dread not|||||sweet|||
w: sad we|||||||long. *|||||||||
w: check- ered|||||||long. *|||||||||
 x4 D4 | E6 |] %18
w: ||
w: ||
w: ||
w: ||
V:3
 (G,A,) | [E,B,]2 [E,B,]2 [E,B,]2 [E,B,]2 | [E,E]3 [E,B,] [B,,E,B,]2 [B,,B,]2 | %3
w: ~ *|~ ~ ~ ~|~ ~ ~ ~|
 [B,,B,]2 [B,,B,]2 [B,,B,]2 [B,,D]2 | [E,E]3 [E,E] [E,E]2 [E,B,]2 | [E,E]2 [E,E]2 [E,E]2 [G,E]2 | %6
w: ~ ~ ~ ~|~ ~ ~ ~|~ ~ ~ ~|
 [A,E]3 [A,E] [A,E]2 [A,C]2 | B,2 B,2 [B,,A,]2 (F,A,) | [E,G,]2 [B,,A,]2 [E,G,]2 || [E,B,]2 | %10
w: ~ ~ ~ ~|~ ~ ~ ~ *|on, roll on,|dark|
 [E,B,]2 [E,B,]2 [E,B,]2 [E,B,]2 | [E,B,]2 [E,B,]2 [E,B,]2 [E,B,]2 | (E,2 F,2) [G,B,]2 [A,E]2 | %13
w: stream, roll on *|||
 (B,2 A,2 [G,B,]2) [F,B,]2 | (E,2 D,2) [C,G,]2 [B,,B,]2 | [A,,C]4 [A,,A,]2 [A,,C]2 | %16
w: |||
 [B,,B,]4 (B,3 A,) | [E,G,]6 |] %18
w: ||
V:4
 E,2 | x8 | x8 | x8 | x8 | x8 | x8 | B,2 B,2 B,,2 x2 | x6 || x2 | x8 | x8 | B,4 x4 | D4 x4 | %14
w: ~|||||||~ ~ Roll|||||||
 B,4 x4 | x8 | x4 B,,4 | x6 |] %18
w: ||||

